svg/crypto/solana_SOL_fill.svg

<?xml version="1.0" encoding="UTF-8"?>
<svg width="24px" height="24px" viewBox="0 0 24 24" version="1.1" xmlns="http://www.w3.org/2000/svg" xmlns:xlink="http://www.w3.org/1999/xlink">
    <title>solana_SOL_fill</title>
    <g id="页面-1" stroke="none" stroke-width="1" fill="none" fill-rule="evenodd">
        <g id="Business" transform="translate(-432.000000, -432.000000)">
            <g id="solana_SOL_fill" transform="translate(432.000000, 432.000000)">
                <path d="M24,0 L24,24 L0,24 L0,0 L24,0 Z M12.5934901,23.257841 L12.5819402,23.2595131 L12.5108777,23.2950439 L12.4918791,23.2987469 L12.4918791,23.2987469 L12.4767152,23.2950439 L12.4056548,23.2595131 C12.3958229,23.2563662 12.3870493,23.2590235 12.3821421,23.2649074 L12.3780323,23.275831 L12.360941,23.7031097 L12.3658947,23.7234994 L12.3769048,23.7357139 L12.4804777,23.8096931 L12.4953491,23.8136134 L12.4953491,23.8136134 L12.5071152,23.8096931 L12.6106902,23.7357139 L12.6232938,23.7196733 L12.6232938,23.7196733 L12.6266527,23.7031097 L12.609561,23.275831 C12.6075724,23.2657013 12.6010112,23.2592993 12.5934901,23.257841 L12.5934901,23.257841 Z M12.8583906,23.1452862 L12.8445485,23.1473072 L12.6598443,23.2396597 L12.6498822,23.2499052 L12.6498822,23.2499052 L12.6471943,23.2611114 L12.6650943,23.6906389 L12.6699349,23.7034178 L12.6699349,23.7034178 L12.678386,23.7104931 L12.8793402,23.8032389 C12.8914285,23.8068999 12.9022333,23.8029875 12.9078286,23.7952264 L12.9118235,23.7811639 L12.8776777,23.1665331 C12.8752882,23.1545897 12.8674102,23.1470016 12.8583906,23.1452862 L12.8583906,23.1452862 Z M12.1430473,23.1473072 C12.1332178,23.1423925 12.1221763,23.1452606 12.1156365,23.1525954 L12.1099173,23.1665331 L12.0757714,23.7811639 C12.0751323,23.7926639 12.0828099,23.8018602 12.0926481,23.8045676 L12.108256,23.8032389 L12.3092106,23.7104931 L12.3186497,23.7024347 L12.3186497,23.7024347 L12.3225043,23.6906389 L12.340401,23.2611114 L12.337245,23.2485176 L12.337245,23.2485176 L12.3277531,23.2396597 L12.1430473,23.1473072 Z" id="MingCute" fill-rule="nonzero"></path>
                <path d="M7.29292,4.29289 C7.48046,4.10536 7.73481,4 8.00003,4 L20.9999996,4 C21.4045,4 21.7691,4.24364 21.9239,4.61732 C22.0787,4.99099 21.9931,5.42111 21.7071,5.70711 L18.7071,8.70711 C18.5196,8.89464 18.2652,9 17.9999996,9 L5.00003,9 C4.59557,9 4.23093,8.75636 4.07615,8.38268 C3.92137,8.00901 4.00692,7.57889 4.29292,7.29289 L7.29292,4.29289 Z M4.11835,10.5281 C4.29237,10.203 4.63123,10 5.00002944,10 L18,10 C18.3344,10 18.6466,10.1671 18.8321,10.4453 L20.8321,13.4453 C21.0366,13.7522 21.0557,14.1467 20.8817,14.4719 C20.7077,14.797 20.3688,15 20,15 L7.00002944,15 C6.66568,15 6.35344,14.8329 6.16798,14.5547 L4.16798,11.5547 C3.96341,11.2478 3.94434,10.8533 4.11835,10.5281 Z M6.29292,16.2929 C6.48046,16.1054 6.73481,16 7.00003,16 L19.9999996,16 C20.4045,16 20.7691,16.2436 20.9239,16.6173 C21.0787,16.991 20.9931,17.4211 20.7071,17.7071 L17.7071,20.7071 C17.5196,20.8946 17.2652,21 16.9999996,21 L4.00003,21 C3.59557,21 3.23093,20.7564 3.07615,20.3827 C2.92137,20.009 3.00692,19.5789 3.29292,19.2929 L6.29292,16.2929 Z" id="形状" fill="#09244B"></path>
            </g>
        </g>
    </g>
</svg>

<svg xmlns="http://www.w3.org/2000/svg" width="24" height="24"><g fill="none" fill-rule="evenodd"><path d="M24 0v24H0V0h24ZM12.593 23.258l-.011.002-.071.035-.02.004-.014-.004-.071-.035c-.01-.004-.019-.001-.024.005l-.004.01-.017.428.005.02.01.013.104.074.015.004.012-.004.104-.074.012-.016.004-.017-.017-.427c-.002-.01-.009-.017-.017-.018Zm.265-.113-.013.002-.185.093-.01.01-.003.011.018.43.005.012.008.007.201.093c.012.004.023 0 .029-.008l.004-.014-.034-.614c-.003-.012-.01-.02-.02-.022Zm-.715.002a.023.023 0 0 0-.027.006l-.006.014-.034.614c0 .012.007.02.017.024l.015-.002.201-.093.01-.008.004-.011.017-.43-.003-.012-.01-.01-.184-.092Z"/><path fill="#09244B" d="M7.293 4.293A1 1 0 0 1 8 4h13a1 1 0 0 1 .707 1.707l-3 3A1 1 0 0 1 18 9H5a1 1 0 0 1-.707-1.707l3-3Zm-3.175 6.235A1 1 0 0 1 5 10h13a1 1 0 0 1 .832.445l2 3A1 1 0 0 1 20 15H7a1 1 0 0 1-.832-.445l-2-3a1 1 0 0 1-.05-1.027Zm2.175 5.765A1 1 0 0 1 7 16h13a1 1 0 0 1 .707 1.707l-3 3A1 1 0 0 1 17 21H4a1 1 0 0 1-.707-1.707l3-3Z"/></g></svg>
